!!!OTL: 372. Das wilde Thier.
!!!ARE: Europa, Mitteleuropa, Deutschland, Rheinland
!!!SCT: K2372
!!!TXL: @@DE
!!!YEM: Copyright 1995, estate of Helmut Schaffrath.
**kern	**text
*clefG2	*
*M2/4	*
*k[f#]	*
*G:	*
{8d	Wir
=1	=1
8g	woll'n
8g	ein-
8g	-mal
8g	ſpa-
=2	=2
8g	-ʒie-
8e	-ren
8d}	geh'n,
{8d	in
=3	=3
8a	ei-
8a	-nem
8dd	ſchö-
8dd	-nen
=4	=4
4b	Gar-
8g}	-ten.
{8d	Wenn
=5	=5
8g	nur
8g	das
8g	bö-
8g	-ſe
=6	=6
8g	Thier
8e	nicht
8d}	käm.
{8d	wir
=7	=7
8a	woll'n
8a	nicht
8dd	lan-
8dd	-ge
=8	=8
4b	war-
8g}	-ten.
{8g	Um
=9	=9
8a	eins
8a	kommt's
8f#	nicht,
8d	um
=10	=10
8a	ʒwei
8a	kommt's
8f#}	nicht
{8d	etc.
=11	=11
4g	elf,
4b	da
=12	=12
4dd	pocht's,
8r}	.
{8b	um
=13	=13
4dd	ʒwölf,
4b	da
=14	=14
4g	kommt's.
8r}	.
==	==
!!!AGN: Kinder - Lied, Tanz -, Lauf - Spiel
!!!ONB: ESAC (Essen Associative Code) Database: KINDER
!!!AMT: simple duple
!!!AIN: vox
!!!EED: Helmut Schaffrath
!!!EEV: 1.0
!!Rheinlaendisch 1890.
!!!GTL: Zweites Buch. Kinderspiel: 3. Lauf-, Sprung- und Haschenspiele.
!!@@COMMENT:"Die Kinder gehn paarweiſe Arm in Arm ſpaʒieren und ſingen obiges Lied. Abſeits im Verſteck lauert ein Kind als "wildes Thier". Bei ʒwölf ſpringts auf die andern los. Wer erhaſcht wird, 
!!tritt an ſeine Stelle als wildes Thier. Thomas, Spiele und Turnübungen für Mädchen 25. ) - Dies Spiel hat einen deutlichen mythologiſchen Hintergrund: Die ʒwölf Stunden ſind die ʒwölf 
!!Weltſtunden, nach deren Ablauf das Himmelsgewölbe einbricht, wenn der Alles verſchlingende Höllenwolf, der den Mond freſſende Managarmr erſcheint. (Vergl. Rochholʒ, Kinderlied 114 und 
!!Grimm, Mythol. 1210. ) Siehe auch oben Nr. 1243 "Weltfreude"."
!!@@END:
!!!URL-scan: https://archive.org/details/DeutschesKinderliedUndKinderspiel/page/562/mode/1up
!!!ENC: Anna Maria Matuszewska
!!!EEV: 2024/05/09
*-	*-
